X:10
T:Jollity. Le4.010
B:L.Leadley MS#4 c1850
Z:Village Music Project, 2016 Steve Mansfield
M:6/8
L:1/8
Q:3/8=110
K:D
ded A2G | F2A d3 | def e2d | c2B A3 |
ded A2G | F2A d3 | def e2d | a3 A3 :|
|: fgf fgf | g2e e2f | g2f e2d | cdc A3 |
fgf fgf | gfg a2g | fed Adc | d3 D3 :|

